packages/appstore/src/assets/svgs/wallet/jcb-dark.svg

<svg width="128" height="80" viewBox="0 0 128 80" fill="none" xmlns="http://www.w3.org/2000/svg">
<path d="M76.7998 24C76.7998 19.5817 80.3815 16 84.7998 16H95.9998V56C95.9998 60.4183 92.4181 64 87.9998 64H76.7998V24Z" fill="#C4C4C4"/>
<path d="M76.7998 24C76.7998 19.5817 80.3815 16 84.7998 16H95.9998V56C95.9998 60.4183 92.4181 64 87.9998 64H76.7998V24Z" fill="url(#paint0_linear_4844_83490)"/>
<path d="M54.3999 24C54.3999 19.5817 57.9816 16 62.3999 16H73.5999V56C73.5999 60.4183 70.0182 64 65.5999 64H54.3999V24Z" fill="url(#paint1_linear_4844_83490)"/>
<path d="M32 24C32 19.5817 35.5817 16 40 16H51.2V56C51.2 60.4183 47.6183 64 43.2 64H32V24Z" fill="#C4C4C4"/>
<path d="M32 24C32 19.5817 35.5817 16 40 16H51.2V56C51.2 60.4183 47.6183 64 43.2 64H32V24Z" fill="url(#paint2_linear_4844_83490)"/>
<path d="M54.4 35.3895C56.4235 33.6743 59.9422 32.5749 65.6159 32.8388C68.651 32.9708 71.906 33.8065 71.906 33.8065V37.1935C70.2785 36.3577 68.3431 35.61 65.8358 35.434C61.5252 35.1261 58.93 37.2375 58.93 40.9323C58.93 44.6711 61.5252 46.7825 65.8358 46.4306C68.3431 46.2546 70.2785 45.4629 71.906 44.6711V48.0581C71.906 48.0581 68.695 48.8938 65.6159 49.0258C59.9422 49.2897 56.4235 48.1903 54.4 46.4751V35.3895Z" fill="white"/>
<path fill-rule="evenodd" clip-rule="evenodd" d="M76.8 33.1178V48.5131H89.2106C92.1137 48.5131 94.313 46.9296 94.313 44.5104C94.313 42.2671 92.3336 40.8155 89.7384 40.6396V40.5516C92.1137 40.2437 93.3893 38.7042 93.3893 36.9007C93.3893 34.6135 91.4978 33.2939 88.9467 33.1619C88.7681 33.1262 88.5313 33.1195 88.3073 33.1182L76.8 33.1178ZM80.7652 45.962H85.3838C85.4498 45.962 85.5598 45.951 85.6697 45.94L85.6723 45.9396C85.7814 45.9288 85.8902 45.918 85.9556 45.918C86.8353 45.742 87.5831 44.9503 87.5831 43.8507C87.5831 42.795 86.8353 42.0032 85.9556 41.7833C85.8236 41.7393 85.5597 41.7393 85.3838 41.7393H80.7652V45.962ZM87.0112 37.4286C87.0112 36.3729 86.2635 35.6692 85.3838 35.5372C85.3442 35.5372 85.2781 35.5283 85.2052 35.5185C85.1159 35.5065 85.0166 35.4932 84.9439 35.4932H80.7652V39.364H84.9439C85.0759 39.364 85.3397 39.364 85.3838 39.32C86.2635 39.1881 87.0112 38.4843 87.0112 37.4286Z" fill="white"/>
<path d="M38.9034 46.0837C36.5729 46.0837 34.2425 45.3804 32 44.2815V47.6359C32.4345 47.7524 35.8655 48.6349 40.179 48.6349C47.7886 48.6349 50.0319 45.6878 50.0319 42.0809V32.7998H43.17V42.1249C43.17 44.4122 41.6745 46.0837 38.9034 46.0837Z" fill="white"/>
<defs>
<linearGradient id="paint0_linear_4844_83490" x1="76.8341" y1="36.6277" x2="96.0508" y2="36.6277" gradientUnits="userSpaceOnUse">
<stop stop-color="#007940"/>
<stop offset="0.2285" stop-color="#00873F"/>
<stop offset="0.7433" stop-color="#40A737"/>
<stop offset="1" stop-color="#5CB531"/>
</linearGradient>
<linearGradient id="paint1_linear_4844_83490" x1="54.2888" y1="39.958" x2="73.2406" y2="39.958" gradientUnits="userSpaceOnUse">
<stop stop-color="#6C2C2F"/>
<stop offset="0.1735" stop-color="#882730"/>
<stop offset="0.5731" stop-color="#BE1833"/>
<stop offset="0.8585" stop-color="#DC0436"/>
<stop offset="1" stop-color="#E60039"/>
</linearGradient>
<linearGradient id="paint2_linear_4844_83490" x1="32.033" y1="40.002" x2="51.547" y2="40.002" gradientUnits="userSpaceOnUse">
<stop stop-color="#1F286F"/>
<stop offset="0.4751" stop-color="#004E94"/>
<stop offset="0.8261" stop-color="#0066B1"/>
<stop offset="1" stop-color="#006FBC"/>
</linearGradient>
</defs>
</svg>

<svg width="128" height="80" fill="none" xmlns="http://www.w3.org/2000/svg"><path d="M76.8 24a8 8 0 0 1 8-8H96v40a8 8 0 0 1-8 8H76.8V24z" fill="#C4C4C4"/><path d="M76.8 24a8 8 0 0 1 8-8H96v40a8 8 0 0 1-8 8H76.8V24z" fill="url(#a)"/><path d="M54.4 24a8 8 0 0 1 8-8h11.2v40a8 8 0 0 1-8 8H54.4V24z" fill="url(#b)"/><path d="M32 24a8 8 0 0 1 8-8h11.2v40a8 8 0 0 1-8 8H32V24z" fill="#C4C4C4"/><path d="M32 24a8 8 0 0 1 8-8h11.2v40a8 8 0 0 1-8 8H32V24z" fill="url(#c)"/><path d="M54.4 35.39c2.023-1.716 5.542-2.815 11.216-2.551 3.035.132 6.29.968 6.29.968v3.386c-1.628-.835-3.563-1.583-6.07-1.759-4.31-.308-6.906 1.803-6.906 5.498 0 3.74 2.595 5.85 6.906 5.499 2.507-.176 4.442-.968 6.07-1.76v3.387s-3.211.836-6.29.968c-5.674.264-9.193-.836-11.216-2.55V35.388z" fill="#fff"/><path fill-rule="evenodd" clip-rule="evenodd" d="M76.8 33.118v15.395h12.41c2.904 0 5.103-1.583 5.103-4.003 0-2.243-1.98-3.694-4.575-3.87v-.088c2.376-.308 3.651-1.848 3.651-3.651 0-2.288-1.891-3.607-4.442-3.74a3.657 3.657 0 0 0-.64-.043H76.8zm3.965 12.844h4.619c.066 0 .176-.011.286-.022h.002c.11-.011.218-.022.284-.022.88-.176 1.627-.968 1.627-2.067 0-1.056-.748-1.848-1.627-2.068-.132-.044-.396-.044-.572-.044h-4.619v4.223zm6.246-8.533c0-1.056-.748-1.76-1.627-1.892-.04 0-.106-.009-.179-.018a2.217 2.217 0 0 0-.261-.026h-4.179v3.871h4.179c.132 0 .396 0 .44-.044.88-.132 1.627-.836 1.627-1.891z" fill="#fff"/><path d="M38.903 46.084c-2.33 0-4.66-.704-6.903-1.803v3.355c.434.116 3.865.999 8.179.999 7.61 0 9.853-2.947 9.853-6.554V32.8H43.17v9.325c0 2.287-1.495 3.959-4.267 3.959z" fill="#fff"/><defs><linearGradient id="a" x1="76.834" y1="36.628" x2="96.051" y2="36.628" gradientUnits="userSpaceOnUse"><stop stop-color="#007940"/><stop offset=".229" stop-color="#00873F"/><stop offset=".743" stop-color="#40A737"/><stop offset="1" stop-color="#5CB531"/></linearGradient><linearGradient id="b" x1="54.289" y1="39.958" x2="73.241" y2="39.958" gradientUnits="userSpaceOnUse"><stop stop-color="#6C2C2F"/><stop offset=".173" stop-color="#882730"/><stop offset=".573" stop-color="#BE1833"/><stop offset=".859" stop-color="#DC0436"/><stop offset="1" stop-color="#E60039"/></linearGradient><linearGradient id="c" x1="32.033" y1="40.002" x2="51.547" y2="40.002" gradientUnits="userSpaceOnUse"><stop stop-color="#1F286F"/><stop offset=".475" stop-color="#004E94"/><stop offset=".826" stop-color="#0066B1"/><stop offset="1" stop-color="#006FBC"/></linearGradient></defs></svg>
